src/main/resources/icons/RubyIcons/icons/rake/rakeTaskDescrNode.svg

<svg xmlns="http://www.w3.org/2000/svg" width="16" height="16" viewBox="0 0 16 16"><rect id="frame" width="16" height="16" fill="none"/><g fill="none" fill-rule="evenodd"><path fill="#9AA7B0" fill-opacity=".8" d="M7 1L3 5h4z"/><path fill="#9AA7B0" fill-opacity=".8" d="M13 7h-.5A2.502 2.502 0 0 0 10 9.5c0 .593.229 1.101.566 1.5H9c-1.103 0-2 .898-2 2v2H3V6h5V1h5v6z"/><path fill="#40B6E0" d="M12.5 10a.507.507 0 0 1-.5-.5c0-.271.229-.5.5-.5h2c.271 0 .5.229.5.5s-.229.5-.5.5h-2zm2 1c.825 0 1.5-.675 1.5-1.5S15.325 8 14.5 8h-2c-.825 0-1.5.675-1.5 1.5 0 .669.577 1.232 1.186 1.424L11.063 12H9c-.55 0-1 .45-1 1v3h1v-2h1v2h1v-2h1v2h1v-2h1v2h1v-3c0-.55-.45-1-1-1h-1.812l1.093-1H14.5z"/></g></svg>

<svg xmlns="http://www.w3.org/2000/svg" width="16" height="16" viewBox="0 0 16 16">
  <g fill="none" fill-rule="evenodd">
    <polygon fill="#9AA7B0" fill-opacity=".8" points="7 1 3 5 7 5"/>
    <path fill="#9AA7B0" fill-opacity=".8" d="M13,7 L12.5,7 C11.121,7 10,8.121 10,9.5 C10,10.093 10.229,10.601 10.566,11 L9,11 C7.897,11 7,11.898 7,13 L7,15 L3,15 L3,6 L8,6 L8,1 L13,1 L13,7 Z"/>
    <path fill="#40B6E0" d="M12.5,10 C12.229,10 12,9.771 12,9.5 C12,9.229 12.229,9 12.5,9 L14.5,9 C14.771,9 15,9.229 15,9.5 C15,9.771 14.771,10 14.5,10 L12.5,10 Z M14.5,11 C15.325,11 16,10.325 16,9.5 C16,8.675 15.325,8 14.5,8 L12.5,8 C11.675,8 11,8.675 11,9.5 C11,10.169 11.577,10.732 12.186,10.924 L11.063,12 L9,12 C8.45,12 8,12.45 8,13 L8,14 L8,16 L9,16 L9,14 L10,14 L10,16 L11,16 L11,14 L12,14 L12,16 L13,16 L13,14 L14,14 L14,16 L15,16 L15,14 L15,13 C15,12.45 14.55,12 14,12 L12.188,12 L13.281,11 L14.5,11 Z"/>
  </g>
</svg>
